images_breeze_svg/cmd/32/mergedialog.svg

<svg viewBox="0 0 32 32" xmlns="http://www.w3.org/2000/svg"><g fill="#4d4d4d"><path d="m2 5v19.683594 2.316406h15v-1h-14v-.888672l.4296875-.427734 9.3554685-9.142578 3.214844 3.142578 12.976562-12.683594h.023438v8h1v-9zm1 1h.0234375l9.0468745 8.841797-9.070312 8.865234zm1.453125 0h23.09375l-11.546875 11.285156z"/><path d="m27.65165 15.062816c-2.799479 2.799478-6.039356 6.039355-8.838834 8.838835l3.535533 3.535534 8.838835-8.838835zm0 1.414213 2.121321 2.121321-2.828427 2.828427-2.121321-2.12132z"/></g></svg>

<?xml version="1.0" encoding="UTF-8" standalone="no"?>
<svg
   xmlns:dc="http://purl.org/dc/elements/1.1/"
   xmlns:cc="http://creativecommons.org/ns#"
   xmlns:rdf="http://www.w3.org/1999/02/22-rdf-syntax-ns#"
   xmlns:svg="http://www.w3.org/2000/svg"
   xmlns="http://www.w3.org/2000/svg"
   xmlns:sodipodi="http://sodipodi.sourceforge.net/DTD/sodipodi-0.dtd"
   xmlns:inkscape="http://www.inkscape.org/namespaces/inkscape"
   viewBox="0 0 32 32"
   version="1.1"
   id="svg8"
   sodipodi:docname="mergedialog.svg"
   inkscape:version="0.92.4 (unknown)"
   inkscape:export-filename="/home/rizmut/Dokumen/Rizmut/Github/libreoffice-style-breeze/images_breeze/cmd/32/mergedialog.png"
   inkscape:export-xdpi="96"
   inkscape:export-ydpi="96">
  <metadata
     id="metadata12">
    <rdf:RDF>
      <cc:Work
         rdf:about="">
        <dc:format>image/svg+xml</dc:format>
        <dc:type
           rdf:resource="http://purl.org/dc/dcmitype/StillImage" />
        <dc:title></dc:title>
      </cc:Work>
    </rdf:RDF>
  </metadata>
  <sodipodi:namedview
     pagecolor="#ffffff"
     bordercolor="#666666"
     borderopacity="1"
     objecttolerance="10"
     gridtolerance="10"
     guidetolerance="10"
     inkscape:pageopacity="0"
     inkscape:pageshadow="2"
     inkscape:window-width="1360"
     inkscape:window-height="714"
     id="namedview10"
     showgrid="true"
     inkscape:zoom="10.429825"
     inkscape:cx="7.703351"
     inkscape:cy="6.9542812"
     inkscape:window-x="0"
     inkscape:window-y="28"
     inkscape:window-maximized="1"
     inkscape:current-layer="svg8">
    <inkscape:grid
       type="xygrid"
       id="grid822" />
  </sodipodi:namedview>
  <defs
     id="defs3051">
    <style
       type="text/css"
       id="current-color-scheme">
      .ColorScheme-Text {
        color:#4d4d4d;
      }
      </style>
  </defs>
  <path
     style="fill:currentColor;fill-opacity:1;stroke:none"
     d="M 2,5 2,24.683594 2,27 17,27 17,26 3,26 3,25.111328 3.4296875,24.683594 12.785156,15.541016 16,18.683594 28.976562,6 29,6 l 0,8 1,0 0,-9 z M 3,6 3.0234375,6 12.070312,14.841797 3,23.707031 Z M 4.453125,6 27.546875,6 16,17.285156 Z"
     class="ColorScheme-Text"
     id="path4" />
  <path
     style="fill:#4d4d4d;fill-opacity:1;stroke:none"
     d="m 27.65165,15.062816 c -2.799479,2.799478 -6.039356,6.039355 -8.838834,8.838835 l 3.535533,3.535534 8.838835,-8.838835 z m 0,1.414213 2.121321,2.121321 -2.828427,2.828427 -2.121321,-2.12132 z"
     id="path6"
     inkscape:connector-curvature="0"
     sodipodi:nodetypes="cccccccccc" />
</svg>
